X: 278
T:I Do Like To Be Beside The Seaside
% Nottingham Music Database
S:Toby Bennett, via EF
M:6/8
K:C
g2^g |"C"a3 g2e|"C"d2c B2c|"G7"g3 g3|"G7"g3 g2^g|"C"a3 g2e|"C"d2c B2c|"F"a3 a3\
|
"F"a3 a2^a|"G7"b3 a2f|"G7"e2d ^c2d|"C"a3 g3|"C"f3 e2^d|"D7"e3 d3|"D7"e3 d^cd|\
"G7"e3 d3|"G7"B3 g2^g|
"C"a3 g2e|"C"d2c B2c|"G7"g3 g3|"G7"g3 g2^g|"C"a3 g2e|"C"d2c B2c|"F"a3 a3|\
"F"a3 a2^a|
"F#7"b2^a b2a|"B7"b3 a2f|"Em"a2g a2g|"A7"a2g f2e|"D7"d3 a3|"G7"a2e d2e|\
"C"c3 c3|c3 ||


